googlebard.svg

<?xml version="1.0" encoding="UTF-8"?>
<svg viewBox="0 0 8 8" version="1.1" xmlns="http://www.w3.org/2000/svg" xmlns:xlink="http://www.w3.org/1999/xlink">
    <title>Google Bard</title>
    <defs>
        <radialGradient cx="78.3021802%" cy="55.5203129%" fx="78.3021802%" fy="55.5203129%" r="78.1147983%" gradientTransform="translate(0.783022,0.555203),scale(0.999475,1.000000),rotate(78.858000),translate(-0.783022,-0.555203)" id="radialGradient-1">
            <stop stop-color="#1BA1E3" offset="0%"></stop>
            <stop stop-color="#1BA1E3" offset="0.01%"></stop>
            <stop stop-color="#5489D6" offset="30.0221%"></stop>
            <stop stop-color="#9B72CB" offset="54.5524%"></stop>
            <stop stop-color="#D96570" offset="82.5372%"></stop>
            <stop stop-color="#F49C46" offset="100%"></stop>
        </radialGradient>
        <radialGradient cx="-3.4086494%" cy="-54.2187761%" fx="-3.4086494%" fy="-54.2187761%" r="169.363094%" gradientTransform="translate(-0.034086,-0.542188),scale(0.999462,1.000000),rotate(78.858000),translate(0.034086,0.542188)" id="radialGradient-2">
            <stop stop-color="#1BA1E3" offset="0%"></stop>
            <stop stop-color="#1BA1E3" offset="0.01%"></stop>
            <stop stop-color="#5489D6" offset="30.0221%"></stop>
            <stop stop-color="#9B72CB" offset="54.5524%"></stop>
            <stop stop-color="#D96570" offset="82.5372%"></stop>
            <stop stop-color="#F49C46" offset="100%"></stop>
        </radialGradient>
    </defs>
    <g id="Page-1" stroke="none" stroke-width="1" fill="none" fill-rule="evenodd">
        <g id="Google-Bard" transform="translate(-0.000006, 0.000001)" fill-rule="nonzero">
            <path d="M3.79678364,5.37405508 L3.47734638,6.10568977 C3.35455092,6.38692119 2.96537485,6.38692119 2.8425868,6.10568977 L2.52314213,5.37405508 C2.23886344,4.72294699 1.72718107,4.20467332 1.08892194,3.92135848 L0.209660588,3.53106286 C-0.0698871222,3.4069773 -0.0698866032,3.00030352 0.209660588,2.87621796 L1.06145941,2.49811144 C1.71613377,2.20750835 2.23699504,1.67002425 2.51641737,0.996710364 L2.83999922,0.217011059 C2.96007364,-0.0723365625 3.35985214,-0.0723372298 3.47993397,0.217010318 L3.80351581,0.996717779 C4.08293815,1.67002425 4.603792,2.20750835 5.25846636,2.49811144 L6.11027186,2.87621796 C6.38982023,3.00030352 6.38982023,3.4069773 6.11027186,3.53106286 L5.23100383,3.92135848 C4.59275212,4.20467332 4.08106975,4.72294699 3.79678364,5.37405508 Z" id="Path" fill="url(#radialGradient-1)"></path>
            <path d="M6.76542815,7.68105579 L6.67558179,7.88695062 C6.60983187,8.03768313 6.40111961,8.03768313 6.33536969,7.88695062 L6.24553074,7.68105579 C6.0853895,7.31393724 5.79695139,7.0216437 5.43703211,6.86173972 L5.16024927,6.73876631 C5.01059183,6.67227496 5.01059183,6.45471746 5.16024927,6.38822611 L5.42155849,6.27212574 C5.7907308,6.10810683 6.08433667,5.80499584 6.24172721,5.42540645 L6.33398322,5.20291103 C6.39827994,5.04784116 6.61267154,5.04784116 6.67696826,5.20291103 L6.76922426,5.42540645 C6.92661481,5.80499584 7.22022809,6.10810683 7.58941523,6.27212574 L7.8506948,6.38822611 C8.00038931,6.45471746 8.00038931,6.67227496 7.8506948,6.73876631 L7.57391936,6.86173972 C7.2140075,7.0216437 6.92556198,7.31393724 6.76542815,7.68105579 Z" id="Path" fill="url(#radialGradient-2)"></path>
        </g>
    </g>
</svg>

<svg viewBox="0 0 8 8" xmlns="http://www.w3.org/2000/svg"><defs><radialGradient cx="78.302%" cy="55.52%" fx="78.302%" fy="55.52%" r="78.115%" gradientTransform="scale(.99947 1) rotate(78.858 .783 .555)" id="a"><stop stop-color="#1BA1E3" offset="0%"/><stop stop-color="#1BA1E3" offset=".01%"/><stop stop-color="#5489D6" offset="30.022%"/><stop stop-color="#9B72CB" offset="54.552%"/><stop stop-color="#D96570" offset="82.537%"/><stop stop-color="#F49C46" offset="100%"/></radialGradient><radialGradient cx="-3.409%" cy="-54.219%" fx="-3.409%" fy="-54.219%" r="169.363%" gradientTransform="scale(.99946 1) rotate(78.858 -.034 -.542)" id="b"><stop stop-color="#1BA1E3" offset="0%"/><stop stop-color="#1BA1E3" offset=".01%"/><stop stop-color="#5489D6" offset="30.022%"/><stop stop-color="#9B72CB" offset="54.552%"/><stop stop-color="#D96570" offset="82.537%"/><stop stop-color="#F49C46" offset="100%"/></radialGradient></defs><g fill-rule="nonzero" fill="none"><path d="m3.797 5.374-.32.732a.344.344 0 0 1-.634 0l-.32-.732A2.818 2.818 0 0 0 1.09 3.921l-.88-.39a.36.36 0 0 1 0-.655l.852-.378A2.82 2.82 0 0 0 2.516.997l.324-.78c.12-.29.52-.29.64 0l.324.78c.279.673.8 1.21 1.454 1.501l.852.378a.36.36 0 0 1 0 .655l-.879.39a2.818 2.818 0 0 0-1.434 1.453Z" fill="url(#a)"/><path d="m6.765 7.681-.09.206a.185.185 0 0 1-.34 0l-.09-.206a1.589 1.589 0 0 0-.808-.82L5.16 6.74a.193.193 0 0 1 0-.35l.262-.117a1.59 1.59 0 0 0 .82-.847l.092-.222a.185.185 0 0 1 .343 0l.092.222c.158.38.451.683.82.847l.262.116c.15.067.15.284 0 .35l-.277.124c-.36.16-.648.452-.809.82Z" fill="url(#b)"/></g></svg>
